!!! OTL: Literature52
!!! Chapter: 5
!!! Section: II
!!! Page: 356
!!! Mode: 
!!! Encoder: DJB
**kern
*staff1
*I"Piano
=1-
*clefG2
*k[b-e-a-d-]
*A-:
*M3/4
4r
4r
8.e-/L
16d-/Jk
=2
8c/L
8d-/J
8e-/L
8f/J
8g/L
8a-/J
=3
8.f/L
16b-/Jk
4.b-\
8a-/
=4
8.g\L
16ff\Jk
4ee-\
8dd-\L
8b-\J
=5
8a-\L
8cc\J
4e-/
8.e-/L
16d-/Jk
=6
8c/L
8d-/J
8e-/L
8f/J
8g/L
8a-/J
=7
8.f/L
16b-/Jk
4.b-\
8a-/
=8
8.g\L
16ff\Jk
4ee-\
8dd-\L
8b-\J
=9
!!linebreak:original
2a-/
4r
==
*-
